storage/app/icons/phosphoricons/regular/cards-three.svg

<svg xmlns="http://www.w3.org/2000/svg" fill="currentColor" viewBox="0 0 256 256"><path d="M208 88H48a16 16 0 0 0-16 16v96a16 16 0 0 0 16 16h160a16 16 0 0 0 16-16v-96a16 16 0 0 0-16-16m0 112H48v-96h160zM48 64a8 8 0 0 1 8-8h144a8 8 0 0 1 0 16H56a8 8 0 0 1-8-8m16-32a8 8 0 0 1 8-8h112a8 8 0 0 1 0 16H72a8 8 0 0 1-8-8"/></svg>

<svg xmlns="http://www.w3.org/2000/svg" viewBox="0 0 256 256" fill="currentColor"><path d="M208,88H48a16,16,0,0,0-16,16v96a16,16,0,0,0,16,16H208a16,16,0,0,0,16-16V104A16,16,0,0,0,208,88Zm0,112H48V104H208v96ZM48,64a8,8,0,0,1,8-8H200a8,8,0,0,1,0,16H56A8,8,0,0,1,48,64ZM64,32a8,8,0,0,1,8-8H184a8,8,0,0,1,0,16H72A8,8,0,0,1,64,32Z"/></svg>
